src/assets/img/icons/duotone-icons/Clothes/Hat.svg

<?xml version="1.0" encoding="UTF-8"?>
<svg width="24px" height="24px" viewBox="0 0 24 24" version="1.1" xmlns="http://www.w3.org/2000/svg" xmlns:xlink="http://www.w3.org/1999/xlink">
    <!-- Generator: Sketch 52.2 (67145) - http://www.bohemiancoding.com/sketch -->
    <title>Stockholm-icons / Clothes / Hat</title>
    <desc>Created with Sketch.</desc>
    <g id="Stockholm-icons-/-Clothes-/-Hat" stroke="none" stroke-width="1" fill="none" fill-rule="evenodd">
        <polygon id="bound" points="0 0 24 0 24 24 0 24"></polygon>
        <path d="M18,12.4295928 C17.2669186,12.6704291 16.4412565,12.9956068 15.5133174,13.4076808 C13.0064958,12.2758653 10.8413979,11.4333578 9,10.8654042 L9,9.5 C9,7.56700338 10.5670034,6 12.5,6 L14.5,6 C16.4329966,6 18,7.56700338 18,9.5 L18,12.4295928 Z" id="Combined-Shape" fill="#335EEA"></path>
        <path d="M1.97502784,15.5343205 C1.52260938,13.444473 -0.334645988,6.68676677 15.5,15.0461567 C15.0475815,15.0461567 3.33228321,22.3263248 1.97502784,15.5343205 Z M21.8957427,15.0583409 C21.299792,18.0406092 15.6986502,15.0583409 15.5,15.0583409 C22.4527579,11.3878569 22.0943929,14.1407199 21.8957427,15.0583409 Z" id="Combined-Shape" fill="#335EEA" opacity="0.3"></path>
    </g>
</svg>

<svg width="24" height="24" viewBox="0 0 24 24" xmlns="http://www.w3.org/2000/svg"><g fill="none" fill-rule="evenodd"><path d="M0 0h24v24H0z"/><path d="M18 12.43c-.733.24-1.559.566-2.487.978-2.507-1.132-4.672-1.975-6.513-2.543V9.5A3.5 3.5 0 0112.5 6h2A3.5 3.5 0 0118 9.5v2.93z" fill="#335EEA"/><path d="M1.975 15.534c-.452-2.09-2.31-8.847 13.525-.488-.452 0-12.168 7.28-13.525.488zm19.92-.476c-.595 2.983-6.196 0-6.395 0 6.953-3.67 6.594-.917 6.396 0z" fill="#335EEA" opacity=".3"/></g></svg>
